icon-themes/breeze_svg/cmd/sc_showerrors.svg

<svg viewBox="0 0 16 16" xmlns="http://www.w3.org/2000/svg"><path d="m3 2v12h10v-12zm1 1h8v10h-8z" fill="#4d4d4d"/><path d="m7 4v5h2v-5zm0 6v2h2v-2z" fill="#da4453"/></svg>

<svg viewBox="0 0 16 16" xmlns="http://www.w3.org/2000/svg">
  <path
     style="fill:#4d4d4d"
     d="M 3,2 V 14 H 13 V 2 Z m 1,1 h 8 V 13 H 4 Z"
     />
  <path
     style="fill:#da4453"
     d="M 7,4 V 9 H 9 V 4 Z m 0,6 v 2 h 2 v -2 z"
     />
</svg>
